images/product-categories/category-1.svg

<svg width="97" height="55" viewBox="0 0 97 55" fill="none" xmlns="http://www.w3.org/2000/svg">
<path d="M62.9795 0.522273L62.9384 0.0239677C62.9795 0.522273 62.9793 0.522291 62.9789 0.522327L62.9769 0.522488L62.9692 0.523131L62.9382 0.52569L62.8157 0.535806L62.3375 0.575309L60.52 0.725614C58.9527 0.855305 56.7104 1.04103 54.0102 1.26518C48.6098 1.71347 41.3782 2.31542 34.053 2.93009C19.3884 4.16063 4.38587 5.43921 2.90576 5.64041C1.68193 5.80678 1.07998 6.68625 0.773334 7.64361C0.620776 8.1199 0.551904 8.59058 0.521889 8.94583C0.506976 9.12234 0.501879 9.2676 0.500466 9.36725C0.49976 9.417 0.499976 9.4552 0.500331 9.48001L0.50087 9.50691L0.501026 9.51226L0.501033 9.51237L0.501039 9.51258L0.501048 9.51282L0.501055 9.51302L0.501415 9.52212L0.501415 9.53198L0.00141458 9.53197C0.501415 9.53198 0.501415 9.53211 0.501415 9.53235V9.53347L0.501414 9.53791L0.501414 9.55558L0.501412 9.62543L0.501403 9.8983L0.501372 10.9374L0.501258 14.6744L0.500915 26.2684L0.500415 45.812C0.500415 47.5536 1.09612 48.3273 1.59311 48.6871C1.85418 48.8761 2.11584 48.9714 2.31179 49.0192C2.40936 49.043 2.48878 49.0545 2.5408 49.0601C2.56672 49.0628 2.58556 49.0641 2.59612 49.0646L2.6037 49.065H2.60491L2.60517 49.065L2.60549 49.065L2.62162 49.065L2.64184 49.0668L18.8313 50.4453L26.7947 39.0249L26.8026 39.0123C26.8128 38.9962 26.8272 38.9736 26.8457 38.9456C26.8827 38.8897 26.9361 38.8115 27.0044 38.7185C27.1403 38.5333 27.3383 38.2848 27.5858 38.0345C28.06 37.5548 28.8102 36.972 29.7174 36.972C30.6328 36.972 31.3664 37.5714 31.8232 38.0617C32.0616 38.3177 32.2503 38.5716 32.3791 38.7607C32.4438 38.8557 32.4942 38.9355 32.5291 38.9927C32.5383 39.0078 32.5464 39.0213 32.5535 39.0331C32.5598 39.0438 32.5652 39.053 32.5697 39.0608L32.5747 39.0694L41.4947 52.38L42.079 52.4385C42.6025 52.4906 43.3544 52.5652 44.2681 52.6546C46.0956 52.8335 48.5698 53.0721 51.1571 53.3106C56.3477 53.7891 61.9474 54.2629 63.7313 54.263L62.9795 0.522273ZM62.9795 0.522273L62.9953 0.52097M62.9795 0.522273L62.9953 0.52097M67.1704 49.739H66.6704V49.7483L66.6707 49.7571L66.6707 49.7573L66.6708 49.7576L66.6708 49.7584L66.671 49.7662L66.6717 49.802C66.6721 49.8345 66.6723 49.8839 66.6714 49.9476C66.6696 50.0753 66.6632 50.26 66.6447 50.4824C66.6075 50.93 66.5225 51.5172 66.335 52.0966C66.1465 52.679 65.8644 53.2226 65.4528 53.6163C65.0533 53.9985 64.5088 54.2627 63.7314 54.263L67.1704 49.739ZM67.1704 49.739C66.6704 49.739 66.6704 49.7388 66.6704 49.7385V49.7371V49.7348V49.7316V49.7275V49.7225V49.7166V49.7098V49.7021V49.6936V49.6841V49.6737V49.6625V49.6504V49.6374V49.6236V49.6088V49.5933V49.5768V49.5595V49.5414V49.5224V49.5026V49.4819V49.4604V49.438V49.4148V49.3908V49.366V49.3403V49.3138V49.2865V49.2584V49.2295V49.1998V49.1693V49.1379V49.1058V49.0729V49.0392V49.0047V48.9695V48.9334V48.8966V48.859V48.8207V48.7815V48.7417V48.701V48.6596V48.6175V48.5746V48.5309V48.4866V48.4414V48.3956V48.349V48.3017V48.2537V48.2049V48.1554V48.1052V48.0543V48.0027V47.9504V47.8974V47.8437V47.7893V47.7342V47.6784V47.622V47.5648V47.507V47.4485V47.3893V47.3295V47.269V47.2078V47.146V47.0835V47.0204V46.9566V46.8922V46.8272V46.7615V46.6952V46.6282V46.5606V46.4924V46.4236V46.3542V46.2841V46.2134V46.1422V46.0703V45.9978V45.9248V45.8511V45.7768V45.702V45.6266V45.5506V45.474V45.3969V45.3191V45.2408V45.162V45.0826V45.0026V44.9221V44.841V44.7594V44.6773V44.5946V44.5113V44.4276V44.3433V44.2585V44.1731V44.0873V44.0009V43.914V43.8266V43.7387V43.6503V43.5614V43.472V43.3821V43.2917V43.2008V43.1095V43.0177V42.9254V42.8326V42.7393V42.6456V42.5515V42.4568V42.3617V42.2662V42.1702V42.0738V41.9769V41.8796V41.7819V41.6837V41.5851V41.4861V41.3866V41.2867V41.1865V41.0858V40.9846V40.8831V40.7812V40.6789V40.5762V40.4731V40.3696V40.2658V40.1615V40.0569V39.9519V39.8465V39.7408V39.6347V39.5282V39.4214V39.3142V39.2067V39.0988V38.9906V38.882V38.7731V38.6639V38.5544V38.4445V38.3343V38.2237V38.1129V38.0017V37.8902V37.7784V37.6664V37.554V37.4413V37.3283V37.215V37.1015V36.9877V36.8735V36.7591V36.6445V36.5295V36.4143V36.2989V36.1831V36.0671V35.9509V35.8344V35.7177V35.6007V35.4835V35.366V35.2483V35.1304V35.0123V34.8939V34.7753V34.6565V34.5375V34.4183V34.2988V34.1792V34.0594V33.9393V33.8191V33.6987V33.5781V33.4573V33.3364V33.2152V33.0939V32.9725V32.8508V32.729V32.607V32.4849V32.3626V32.2402V32.1176V31.9949V31.8721V31.7491V31.626V31.5027V31.3794V31.2559V31.1323V31.0085V30.8847V30.7608V30.6367V30.5125V30.3883V30.2639V30.1395V30.015V29.8904V29.7657V29.6409V29.516V29.3911V29.2661V29.1411V29.016V28.8908V28.7656V28.6403V28.515V28.3896V28.2642V28.1387V28.0132V27.8877V27.7622V27.6366V27.511V27.3854V27.2598V27.1342V27.0085V26.8829V26.7572V26.6316V26.5059V26.3803V26.2547V26.1291V26.0035V25.8779V25.7524V25.6269V25.5014V25.376V25.2506V25.1253V25V24.8747V24.7495V24.6243V24.4993V24.3742V24.2493V24.1244V23.9996V23.8748V23.7502V23.6256V23.5011V23.3767V23.2524V23.1282V23.0041V22.8801V22.7562V22.6324V22.5087V22.3851V22.2617V22.1384V22.0152V21.8921V21.7692V21.6464V21.5238V21.4013V21.2789V21.1567V21.0347V20.9128V20.791V20.6695V20.5481V20.4268V20.3058V20.1849V20.0642V19.9437V19.8234V19.7032V19.5833V19.4635V19.344V19.2246V19.1055V18.9866V18.8679V18.7494V18.6311V18.5131V18.3953V18.2777V18.1603V18.0432V17.9263V17.8097V17.6933V17.5772V17.4613V17.3457V17.2304V17.1153V17.0005V16.8859V16.7717V16.6577V16.5439V16.4305V16.3174V16.2045V16.092V15.9797V15.8678V15.7561V15.6448V15.5338V15.4231V15.3127V15.2026V15.0929V14.9834V14.8744V14.7656V14.6572V14.5491V14.4414V14.3341V14.227V14.1204V14.0141V13.9081V13.8025V13.6973V13.5925V13.4881V13.384V13.2803V13.177V13.074V12.9715V12.8694V12.7677V12.6663V12.5654V12.4649V12.3648V12.2651V12.1658V12.067V11.9686V11.8706V11.773V11.6759V11.5793V11.483V11.3872V11.2919V11.197V11.1026V11.0086V10.9151V10.8221V10.7295V10.6374V10.5458V10.4547V10.364V10.2739V10.1842V10.095V10.0063V9.91815V9.83047V9.7433V9.65664V9.57049V9.48486V9.39976V9.31517V9.23111V9.14758V9.06459V8.98214V8.90022V8.81885V8.73803V8.65776V8.57804V8.49888V8.42028V8.34225V8.26478V8.18788V8.11156V8.03582V7.96065V7.88608V7.81209V7.73869V7.66588V7.59368V7.52207V7.45107V7.38068V7.3109V7.24174V7.17319V7.10526V7.03796V6.97129V6.90525V6.83985V6.77508V6.71095V6.64747V6.58464V6.52246V6.46094V6.40007V6.33987V6.28033V6.22146V6.16326V6.10574V6.04889V5.99273V5.93725V5.88247V5.82837V5.77497V5.72227V5.67027V5.61898V5.5684V5.51853V5.46937V5.42094V5.37322V5.32623V5.27998V5.23445V5.18966V5.14561V5.1023V5.05974V5.01793V4.97687V4.93657V4.89702V4.85824V4.82023V4.78298V4.74651V4.71081V4.6759V4.64177V4.60842V4.57586V4.5441V4.51313V4.48297C66.6704 3.28221 66.4207 2.46308 66.0813 1.90184C65.7437 1.34351 65.2979 1.0079 64.8479 0.803838C64.3923 0.597236 63.929 0.524583 63.573 0.505602C63.3965 0.496188 63.2505 0.500193 63.1507 0.506278C63.1009 0.509314 63.063 0.512846 63.039 0.51541C63.027 0.516691 63.0185 0.517727 63.0137 0.518334L63.011 0.51867M67.1704 49.739L63.011 0.51867M63.011 0.51867L63.0105 0.518746M63.011 0.51867L63.0105 0.518746M62.9953 0.52097L63.0095 0.518896M62.9953 0.52097L63.0095 0.518896M63.0095 0.518896L63.0095 0.51889M63.0095 0.518896L63.0095 0.51889M63.0095 0.51889L63.0101 0.518808M63.0095 0.51889L63.0101 0.518808M63.0101 0.518808L63.0105 0.518746M63.0101 0.518808L63.0105 0.518746M86.5597 17.1417L86.5135 17.133H86.4664C84.8932 17.133 83.6314 18.4249 83.6314 20.003V32.639C83.6314 34.2157 84.8931 35.5094 86.4672 35.507L86.5134 35.5069L86.5589 35.4983L94.2924 34.0429V41.353C94.2924 42.4197 93.8787 43.766 93.1636 44.9519C92.4483 46.1381 91.4808 47.0834 90.4355 47.4495L68.892 53.9917C69.5772 52.848 69.7924 51.4298 69.7924 49.78V4.57097C69.7924 3.39044 69.7277 2.54732 69.4135 1.81414C69.3145 1.58321 69.1932 1.36871 69.0485 1.16154L90.4427 7.2328C91.6684 7.64342 92.6338 8.09373 93.2914 8.68805C93.9267 9.26219 94.2924 9.98579 94.2924 11.02V18.6101L86.5597 17.1417ZM86.2074 21.386C86.2074 20.6481 86.7829 20.0589 87.4881 20.0357L95.0044 21.4642C95.4979 21.6269 95.8633 21.8051 96.1033 22.0215C96.3262 22.2225 96.4534 22.4661 96.4534 22.83V29.823C96.4534 30.2027 96.3388 30.4232 96.1383 30.6051C95.9106 30.8116 95.549 30.9886 94.9966 31.1912L87.4885 32.6053C86.7833 32.5822 86.2074 31.9932 86.2074 31.254V21.386ZM5.78641 26.917C5.78641 29.8367 6.55682 32.5033 7.82876 34.4552C9.09768 36.4024 10.9088 37.692 12.9824 37.692C15.056 37.692 16.8671 36.4024 18.1361 34.4552C19.408 32.5033 20.1784 29.8367 20.1784 26.917C20.1784 23.9973 19.408 21.3306 18.1361 19.3787C16.8671 17.4315 15.056 16.142 12.9824 16.142C10.9088 16.142 9.09768 17.4315 7.82876 19.3787C6.55682 21.3306 5.78641 23.9973 5.78641 26.917ZM40.1994 26.917C40.1994 30.2413 41.1707 33.2715 42.7662 35.4832C44.3611 37.6942 46.6082 39.118 49.1404 39.118C51.6726 39.118 53.9199 37.6943 55.5151 35.4833C57.1109 33.2716 58.0824 30.2413 58.0824 26.917C58.0824 23.5922 57.1109 20.5616 55.5152 18.3498C53.9199 16.1387 51.6726 14.715 49.1404 14.715C46.6087 14.715 44.3616 16.1387 42.7665 18.3498C41.171 20.5616 40.1994 23.5922 40.1994 26.917Z" fill="#363636" stroke="black"/>
</svg>

<svg xmlns="http://www.w3.org/2000/svg" width="97" height="55" fill="none" viewBox="0 0 97 55"><path fill="#363636" stroke="#000" d="m62.98.52-.04-.5.04.5h-.04l-.12.02-.48.04-1.82.15a25124.01 25124.01 0 0 0-26.47 2.2C19.4 4.16 4.4 5.43 2.91 5.64c-1.23.17-1.83 1.05-2.14 2A6 6 0 0 0 .5 9.48v.05H0h.5v36.28c0 1.74.6 2.52 1.1 2.88a2.06 2.06 0 0 0 1 .37h.04l16.2 1.39 7.95-11.43h.01a4.02 4.02 0 0 1 .2-.3c.14-.19.34-.44.59-.69.47-.48 1.22-1.06 2.13-1.06.91 0 1.65.6 2.1 1.1a5.97 5.97 0 0 1 .7.92l.03.04.02.03 8.92 13.32.59.06a1305.73 1305.73 0 0 0 9.08.87c5.19.48 10.79.95 12.57.95L62.98.52Zm0 0H63m-.02 0H63m4.17 49.22h-.5v.06a5.57 5.57 0 0 1-.03.68 7.32 7.32 0 0 1-.3 1.62 3.63 3.63 0 0 1-.89 1.52c-.4.38-.94.64-1.72.64l3.44-4.52Zm0 0h-.5V4.47c0-1.2-.25-2.02-.59-2.58-.34-.56-.78-.9-1.23-1.1A3.58 3.58 0 0 0 63 .52m4.16 49.22L63.01.52m-.01 0H63m-.01 0H63m23.55 16.62h-.09A2.85 2.85 0 0 0 83.63 20v12.64a2.85 2.85 0 0 0 2.84 2.87h.04l.05-.01 7.73-1.46v7.31c0 1.07-.41 2.42-1.13 3.6a5.64 5.64 0 0 1-2.72 2.5l-21.55 6.54c.69-1.14.9-2.56.9-4.21V4.58c0-1.19-.06-2.03-.38-2.77-.1-.23-.22-.44-.36-.65l21.4 6.07c1.22.41 2.18.86 2.84 1.46.64.57 1 1.3 1 2.33v7.59l-7.73-1.47Zm-.35 4.25c0-.74.57-1.33 1.28-1.35L95 21.46c.5.17.86.35 1.1.56a1 1 0 0 1 .35.81v7c0 .37-.11.6-.31.78-.23.2-.6.38-1.14.58l-7.51 1.42a1.34 1.34 0 0 1-1.28-1.36V21.4ZM5.79 26.92c0 2.92.77 5.58 2.04 7.54 1.27 1.94 3.08 3.23 5.15 3.23 2.08 0 3.89-1.29 5.16-3.23a13.96 13.96 0 0 0 2.04-7.54c0-2.92-.77-5.59-2.04-7.54-1.27-1.95-3.08-3.24-5.16-3.24-2.07 0-3.88 1.3-5.15 3.24a13.96 13.96 0 0 0-2.04 7.54Zm34.4 0c0 3.32.98 6.35 2.58 8.56 1.6 2.21 3.84 3.64 6.37 3.64 2.53 0 4.78-1.43 6.38-3.64a14.74 14.74 0 0 0 2.56-8.56c0-3.33-.97-6.36-2.56-8.57-1.6-2.21-3.85-3.64-6.38-3.64s-4.78 1.43-6.37 3.64a14.74 14.74 0 0 0-2.57 8.57Z"/></svg>
